X:1
T:Go Tell Your Story to Jesus
T:Go Tell Your Story to Jesus
T:John E. Sturgis
T:Daniel S. Twohig, 1922
T:Public Domain Courtesy of the Cyber Hymnal™
T:Public Domain Courtesy of the Cyber Hymnal™
C:John E. Sturgis
Z:Public Domain
Z:Courtesy of the Cyber Hymnal™
%%score ( 1 2 ) ( 3 4 )
L:1/8
Q:1/4=88
M:6/8
K:Eb
V:1 treble 
V:2 treble 
V:3 bass 
V:4 bass 
V:1
 [EG]/[FA]/ | [GB][Gc][GB] E[B,D][B,E] | (A2 ^C) [DA]2 ([FA]/[EG]/) | %3
w: 1.~When your|heart with life’s bur- dens is|wear- * y, And~the *|
w: 2.~“Come to|Me” is the kind in- vi-|ta- * tion Of *|
w: 3.~When the|tri- als of life are all|end- * ed, When~you *|
 [DF][^C=E][DF] [DB][DF][D^F] | [EG]3- [EG]2 [EG]/[FA]/ | [GB][Gd][Gd] [Ge][GB][EG] | %6
w: path- way a- round you is|drear, * There is|one who is al- ways be-|
w: Je- sus, your Sav- ior and|Lord; * Lean on|Him, there is rest in His|
w: reach the glad home of the|blest, * You will|dwell in the glo- ry with|
 [DF]3 [FB]2 [Fd] | [Fc][Fd][Fe] [E=A][DB][Ec] | B3 [FB]2 z || %9
w: side you, Your|cry of dis- tress He will|hear. Go|
w: bo- som, Find|com- fort in His ho- ly|Word. *|
w: Je- sus, For-|ev- er with Him you will|rest. *|
"^Refrain" [Ad][Ac][GB] [FA][^C=E][DF] | [Ac]3 [AB]3 | [EG][EF]E [EA]E[EF] | [EG]3- [EG]2 [EG] | %13
w: * tell your sto- ry to|Je- sus,|He is your Sav- ior and|guide; * He|
w: ||||
w: ||||
 [EB][DA][EG] [DF]2 [DF] | [FA][EG][DF] [CE]2 [EG] | [EF][E=A][Fc] [Fe][Fd][Ec] | %16
w: came from a- bove, in|in- fi- nite love, To|save you on Cal- v’ry He|
w: |||
w: |||
 ([DB-]3 [AB]2) z | [Ad][Ac][GB] [FA][^C=E][DF] | [Ac]3 [AB]3 | [EG][EF]E [EA]EF | ([DG]3 [AB]3) | %21
w: died; *|Trust- ing this gra- cious Re-|deem- er,|You may your cour- age re-|new; *|
w: |||||
w: |||||
 [Ge][Ge][Ge] [EG][DA][EB] | [Ed]3 [Ec]3 | [EB][Ee][EG] [DB][DA]!fermata![DFf] | (z CC [B,Ee]2) |] %25
w: Go tell your sto- ry to|Je- sus,|Find out how much He loves||
w: ||||
w: ||||
V:2
 x | x3 E x2 | D3 x3 | x6 | x6 | x6 | x6 | x6 | D2 E x3 || x6 | x6 | x2 E E x2 | x6 | x6 | x6 | %15
 x6 | x6 | x6 | x6 | x2 E E (E/C/) x | x6 | x6 | x6 | x6 | [Ee]3 x2 |] %25
V:3
 [E,B,]/[E,B,]/ | [E,E][E,E][E,E] [G,B,][F,A,][E,G,] | (F,2 =E,) [B,,F,]2 [B,,B,] | %3
w: ~ ~|~ ~ ~ ~ ~ ~|~ * ~ ~|
 [B,,B,][B,,B,][B,,B,] [B,,B,][B,,B,][B,,B,] | [E,B,]3- [E,B,]2 [E,B,]/[E,B,]/ | %5
w: ~ ~ ~ ~ ~ ~|~ * ~ ~|
 [E,E][E,E][E,E] [E,E][E,E][E,B,] | [F,B,]3 [F,D]2 [F,B,] | [F,E][F,D][F,C] [F,C][F,B,][F,=A,] | %8
w: ~ ~ ~ ~ ~ ~|~ ~ ~|~ ~ ~ ~ ~ ~|
 (F,2 G, [B,,A,]2) z || [B,,B,]3 [B,,B,]2 [B,,B,] | [B,,D][B,,D][B,,D] [B,,D]2 [B,,D] | %11
w: ~ * *|* Go tell|the sto- ry to Je-|
 [E,B,][E,A,][E,G,] [E,C][E,C][E,_C] | [E,B,][E,B,][E,B,] [E,B,]2 [E,B,] | %13
w: sus, ~ ~ ~ ~ ~|~ Sav- ior and guide,|
 [G,B,][F,B,][E,B,] [B,,B,]2 [B,,B,] | [B,,B,][B,,B,][=B,,A,] [C,G,]2 [C,C] | %15
w: ~ ~ ~ ~ ~|~ ~ ~ ~ ~|
 [F,C][F,C][F,=A,] [F,A,][F,A,][F,A,] | ([B,,-B,]3 [B,,D]2) z | [B,,B,]3 [B,,B,]2 [B,,B,] | %18
w: ~ ~ ~ ~ ~ ~|~ *|~ Trust- ing|
 [B,,D][B,,D][B,,D] [B,,D]2 [B,,D] | [E,B,][E,A,][E,G,] [E,C][A,C][A,C] | ([G,=B,]3 D3) | %21
w: this gra- cious Re- deem-|er, ~ ~ ~ ~ ~|~ *|
 [E,B,][E,B,][E,B,] [E,B,][F,B,][G,B,] | A,3 [A,,A,]3 | %23
w: ~ ~ ~ ~ ~ ~|~ ~|
 [B,,G,][B,,G,][B,,B,] [B,,F,][B,,F,]!fermata![B,,A,] | G,A,(A, [E,G,]2) |] %25
w: ~ ~ ~ ~ ~ ~|~ He loves *|
V:4
 x | x6 | B,,3 x3 | x6 | x6 | x6 | x6 | x6 | B,,3- x3 || x6 | x6 | x6 | x6 | x6 | x6 | x6 | x6 | %17
 x6 | x6 | x6 | x3 (F,2 =B,,) | x6 | A,3 x3 | x6 | E,3 x2 |] %25

